!!!ONB: MCCC : ILB0174_04 : Extracted Monophonic Melody
!!!COM: Beethoven, Ludwig van
!!!OPR: Piano Sonata No.13
!!!OMV: 4
!!!SCT: Op.27 No.1
!!!ODT: 1800///
**kern
*thru
*staff1
*clefG2
*k[b-e-a-]
*E-:
*M2/4
*MM144
8B-
8b-
=5
4ee-
4cc
=6
8b-
8a-
4g
=7
16a-
16b-
16cc
16dd
16ee-
16ff
16gg
16aa-
=8
16bb-
16ccc
16aa-
16ff
8ee-
8re
=9
8b-
8dd
4ff
=10
8dd
8ff
[4aa-
=11
8aa-]
8gg
8ff
8ee-
=12
8dd
8ee-
8cc
8a
=13
8b-
8dd
4ff
=14
8dd
8ff
[4aa-
=15
8aa-]
8gg
8ff
8ee-
=16
8cc
8dd
8ee-
8r
=17
8b-
8dd
4ff
=18
8dd
8ff
[4aa-
=19
8aa-]
8gg
8ff
8ee-
=20
8dd
8ee-
8cc
8a
=21
8b-
8dd
4ff
=22
8dd
8ff
[4aa-
=23
8aa-]
8gg
8ff
8ee-
=24
8cc
8dd
8ee-
8B-
=25
4e-
4c
=26
4.r
8ccc
=27
8bb-
8aa-
8gg
8a-
=28
8g
8f
8e-
8aa-
=29
8gg
8ff
8ee-
8g
=30
8f
8e-
8d
8gg
=31
8ff
8ee-
8dd
8e
=32
8f
8ee
8ff
8e
=33
8f
8bb-
8aa
8e
=34
8f
8ee
8ff
8eee
=35
8fff
8ee
8ff
16d
16b
=36
16e-
16cc
16c
16a
16d
16b-
16d
16b
=37
16e-
16cc
16c
16a
16d
16b-
16d
16b
=38
16e-
16cc
16d
16b
16e-
16cc
16d
16b
=39
16e-
16cc
16d
16b
16e-
16cc
16d
16b
=40
16e-
16cc
16c
16a
16d
16b-
16d
16b
=41
16e-
16cc
16c
16a
16d
16b-
16d
16b
=42
16e-
16cc
16d
16b
16e-
16cc
16d
16b
=43
16e-
16cc
16d
16b
16e-
16cc
16e-
16cc
=44
16e-
16cc
16e-
16b
16e-
16cc
16e-
16b
=45
16e-
16cc
16e-
16b
16e-
16cc
16e-
16cc
=46
16e-
16dd-
16e-
16cc
16e-
16dd-
16e-
16cc
=47
16e-
16dd-
16e-
16cc
16e-
16dd-
16e-
16dd-
=48
16e-
16dd-
16e-
16cc
16e-
16dd-
16e-
16dd-
=49
16e-
16dd-
16e-
16cc
16e-
16dd-
16e-
16dd-
=50
16e-
16dd-
16e-
16cc
16e-
16cc
16e-
16cc
=51
16d
16cc
16d
16b
16d-
16b-
16d-
16b-
=52
16c
16b-
16c
16a
16B
16a-
16B
16a-
=53
16d
16a-
16d
16g
16e-
16g
16e-
16g-
=54
16c
16g-
16c
16f
16d
16f
16d
16f
=55
16c
16f
16c
16e-
4r
=56
8r
8B-
8d
8f
=57
8b-
8f
8d
8B-
=58
8r
8d
8f
8b-
=59
8dd
8b-
8f
8d
=60
8r
8ff
8bb-
8ddd
=61
8fff
8ddd
8bb-
8ff
=62
8gg
8aa
8bb-
8ff
=63
8gg
8aa
8bb-
8r
=64
8r
8ff
8bb-
8ddd
=65
8fff
8ddd
8bb-
8ff
=66
8gg
8aa
8bb-
8ff
=67
8gg
8aa
8bb-
8ff
=68
8gg
8aa
8bb-
8ddd
=69
8bb-
8ddd
8bb-
8ff
=70
8gg
8aa
8bb-
8ddd
=71
8bb-
8ddd
8bb-
8ddd
=72
8bb-
8ff
8dd
8ff
=73
8dd
8ff
8dd
8ff
=74
8dd
8aa-
8ff
8aa-
=75
8ff
8aa-
8ff
8aa-
=76
8ff
8ff
8dd
8aa-
=77
8ff
8ff
8dd
8aa-
=78
8ff
8ff
8dd
8dd
=79
8a-
8a-
8f
8f
=80
2d
=81
2r
=82
2r
=83
2r
=84
2r
=85
4.r
8b-
=86
4ee-
4cc
=87
8b-
8a-
4g
=88
16a-
16b-
16cc
16dd
16ee-
16ff
16gg
16aa-
=89
16bb-
16ccc
16aa-
16ff
8ee-
8r
=90
8b-
8dd
4ff
=91
8dd
8ff
[4aa-
=92
8aa-]
8gg
8ff
8ee-
=93
8dd
8ee-
8cc
8a
=94
8b-
8dd
4ff
=95
8dd
8ff
[4aa-
=96
8aa-]
8gg
8ff
8ee-
=97
8cc
8dd
8ee-
8r
=98
8b-
8dd
4ff
=99
8dd
8ff
[4aa-
=100
8aa-]
8gg-
8ff
8ee-
=101
8dd
8ee-
8cc-
8a
=102
8b-
8dd
4ff
=103
8dd
8ff
[4aa-
=104
8aa-]
8gg-
8ff
8ee-
=105
8dd-
8ee-
8dd-
8cc-
=106
16b-
8.r
4r
=107
16d-
16c
16d-
16e-
16f
16d-
16e-
16f
=108
16g-
16f
16g-
16f
16g-
16b-
16a-
16g-
=109
4dd-
4b-
=110
4.a-
8g-
=111
8f
8g-
8a-
8dd-
=112
4gg-
4ee-
=113
4.dd-
8cc-
=114
8b-
8g-
8cc
8a-
=115
4.dd-
8dd-
=116
8cc-
8a-
8dd
8b-
=117
4.ee-
8ee-
=118
16dd-
16b-
16cc
16dd-
16ee-
16dd
16ee-
16ee
=119
16ff
16ee
16ff
16gg
16aa
16ff
16gg
16aa
=120
16bb-
16aa
16bb-
16aa
16bb-
16ddd-
16ccc
16bb-
=121
8aa-
8ff
4bb-
=122
8gg-
8ee-
4aa-
=123
8ff
8dd-
8gg-
8ee-
=124
8cc
8ff
8dd-
8b-
=125
8ee-
8cc
8a
8ddd-
=126
8bb-
8gg-
8ccc-
8aa-
=127
8ff
8bb-
8gg-
8ee-
=128
8aa-
8ff
8dd
8ee-
=129
16dd-
16ee
16dd-
16ee
16dd-
16ee
16dd-
16ee
=130
16dd-
16ff
16dd-
16ff
16e-
16a
16e-
16a
=131
4b-
4ee
=132
4.ff
8a
=133
4b-
4eee
=134
4.fff
8aa
=135
8bb-
8ee
8ff
8a
=136
8b-
8eee
8fff
8aa
=137
8bb-
8ee
8ff
8a
=138
8b-
8eee
8fff
8aa
=139
8bb-
8bb-
8bb-
8bb-
=140
8bb-
8bb-
8bb-
8bb-
=141
8bb-
8bb-
8bb-
8bb-
=142
8bb-
8bb-
8bb-
8bb-
=143
8bb-
8bb-
8bb-
8gg-
=144
8gg-
8gg-
8gg-
8gg-
=145
8gg-
8gg-
8gg-
8gg-
=146
8gg-
8gg-
8gg-
8gg-
=147
8gg-
8gg-
8gg-
8ee-
=148
8ee-
8ee-
8ee-
8ee-
=149
8ee-
8ee-
8ee-
8ee-
=150
8ee-
8ee-
8ee-
8ee-
=151
8ee-
8ee-
8ee-
8ee-
=152
8ee-
8ee-
8ee-
8ee-
=153
8ee-
8ee-
8ee-
8ee-
=154
8ee-
8ee-
8ee-
8ee-
=155
8ee-
8dd
8dd
8dd
=156
8dd
8dd
8dd
8dd
=157
8ee
8ff
8ff
8ff
=158
8ff
8ff
8ff
8ff
=159
8aa
8bb-
8bb-
8bb-
=160
8bb-
8bb-
8bb-
8bb-
=161
8aa
8bb-
8bb-
8bb-
=162
8aa
8bb-
8bb-
8bb-
=163
8aa
8bb-
8bb-
8bb-
=164
8bb-
8bb-
8bb-
8bb-
=165
8bb-
8bb-
8bb-
8bb-
=166
8bb-
8bb-
8bb-
8bb-
=167
2r
=168
2r
=169
2r
=170
4r
8B-
8b-
=171
4ee-
4cc
=172
8b-
8a-
4g
=173
16a-
16b-
16cc
16dd
16ee-
16ff
16gg
16aa-
=174
16bb-
16ccc
16aa-
16ff
8ee-
8r
=175
8b-
8dd
4ff
=176
8dd
8ff
[4aa-
=177
8aa-]
8gg
8ff
8ee-
=178
8dd
8ee-
8cc
8a
=179
8b-
8dd
4ff
=180
8dd
8ff
[4aa-
=181
8aa-]
8gg
8ff
8ee-
=182
8cc
8dd
8ee-
8r
=183
16r
16bb-
16aa
16bb-
16aa
16bb-
16aa-
16bb-
=184
16ff
16bb-
16aa
16bb-
16ff
16bb-
16dd
16bb-
=185
16b-
16bb-
16ee-
16bb-
16ff
16bb-
16gg
16bb-
=186
16aa-
16bb-
16gg
16bb-
16gg
16bb-
16gg
16bb-
=187
16ff
16bb-
16aa
16bb-
16aa
16bb-
16aa-
16bb-
=188
16ff
16bb-
16aa
16bb-
16ff
16bb-
16dd
16bb-
=189
16b-
16bb-
16ee-
16bb-
16ff
16bb-
16gg
16bb-
=190
16aa-
16bb-
16ff
16bb-
8ee-
8B-
=191
4e-
4c
=192
4.r
8ccc
=193
8bb-
8aa-
8gg
8a-
=194
8g
8f
8e-
8aa-
=195
8gg
8ff
8ee-
8f
=196
8e-
8d
8c
8ff
=197
8ee-
8dd-
8cc
8d-
=198
8c
8bb-
8aa-
8r
=199
8r
8aa-
8gg
8e-
=200
8d
8ee-
8dd
8e-
=201
8d
8aa
8bb-
8e-
=202
8d
8ee-
8dd
8aa
=203
8bb-
8a
8b-
16G
16e
=204
16A-
16f
16F
16d
16G
16e-
16G
16e
=205
16A-
16f
16F
16d
16G
16e-
16G
16e
=206
16A-
16f
16G
16e
16A-
16f
16G
16e
=207
16A-
16f
16G
16e
16A-
16f
16g
16ee
=208
16a-
16ff
16f
16dd
16g
16ee-
16g
16ee
=209
16a-
16ff
16f
16dd
16g
16ee-
16g
16ee
=210
16a-
16ff
16g
16ee
16a-
16ff
16g
16ee
=211
16a-
16ff
16g
16ee
16a-
16ff
16a-
16ff
=212
16a-
16ff
16a-
16ee
16a-
16ff
16a-
16ee
=213
16a-
16ff
16a-
16ee
16a-
16ff
16a-
16ff
=214
16a-
16gg-
16a-
16ff
16a-
16gg-
16a-
16ff
=215
16a-
16gg-
16a-
16ff
16a-
16gg-
16a-
16gg-
=216
16a-
16gg-
16a-
16ff
16a-
16gg-
16a-
16gg-
=217
16a-
16gg-
16a-
16ff
16a-
16gg-
16a-
16gg-
=218
16a-
16gg-
16a-
16ff
16a-
16ff
16a-
16ff
=219
16g
16ff
16g
16ee
16g-
16ee-
16g-
16ee-
=220
16f
16ee-
16f
16dd
16e
16dd-
16e
16dd-
=221
16g
16dd-
16g
16cc
16a-
16cc
16a-
16cc-
=222
16f
16cc-
16f
16b-
16g
16b-
16g
16b-
=223
16f
16b-
16f
16a-
16d
16f
16d
16f
=224
8e-
8e-
8g
8b-
=225
8ee-
8b-
8g
8e-
=226
8r
8g
8b-
8ee-
=227
8gg
8ee-
8b-
8g
=228
8r
8b-
8ee-
8gg
=229
8bb-
8gg
8ee-
8b-
=230
8cc
8dd
8ee-
8b-
=231
8cc
8dd
8ee-
8r
=232
8r
8b-
8ee-
8gg
=233
8bb-
8gg
8ee-
8b-
=234
8cc
8dd
8ee-
8b-
=235
8cc
8dd
8ee-
8b-
=236
8cc
8dd
8ee-
8gg
=237
8ee-
8gg
8ee-
8b-
=238
8cc
8dd
8ee-
8gg
=239
8ee-
8gg
8ee-
8gg
=240
8ee-
8bb-
8gg
8bb-
=241
8gg
8bb-
8gg
8bb-
=242
8gg
8bb-
8gg
8bb-
=243
8ff
8bb-
8ff
8bb-
=244
8ee
8bb-
8ee
8bb-
=245
8ee
8bb-
8ee
8bb-
=246
8ff
8bb-
8ff
8gg
=247
8aa-
8bb-
8aa-
8gg
=248
8ff
8bb-
8ff
8gg
=249
8aa-
8bb-
8aa-
8gg
=250
8ff
16b-
16bb-
16b-
16bb-
16cc
16bb-
=251
16dd
16bb-
16ee-
16bb-
16ff
16bb-
16gg
16bb-
=252
16aa-
16bb-
16dd
16bb-
16dd
16bb-
16ee-
16ccc
=253
16ff
16ddd
16gg
16eee-
16aa-
16fff
16aa-
16fff
=254
2fff[
=255
2fff]
=256
*M3/4
*MM60
2g
16g
16f
16e-
32g
32f
=257
4.e-
8e-
8f
8g
=258
4a-
16a-
16g
16a-
16b-
16cc
16dd
32ff
32ee-
32dd
32cc
=259
8.a
32cc
32b-
8b-
8b-
8b-
8b-
=260
4.aa-
8aa-
16aa-
16gg
16ff
16ee-
=261
8ee-
4dd
8dd
16ee-
16ee-
16ff
16gg
=262
16aa-
16aa-
16bb-
16ccc
16ccc
16bb-
16aa
16bb-[
16bb-]
16bb-
16aa
16bb-
=263
16bb-
16ee-
8r
8r
8ccc[
64ccc]
64bb-
64aa
64bb-
64aa
64bb-
64aa
64bb-
16.bb-
64aa
64bb-
=264
4ee-
8r
[8cc
16cc]
8cc
[16cc
=265
4cc]
4r
4r
=266
*M2/4
*MM208
2r
=267
2r
=268
2r
=269
2r
=270
4g
4e-
=271
4a-
4f
=272
4b-
[4g
=273
8g]
8a-
8f
8f
=274
4gg
[4ee
=275
8ee]
8ff
8dd
8dd
=276
4bb-
[4gg
=277
8gg]
8aa-
8ff
8ff
=278
8ee-
16gg
16bb-
16aa-
16bb-
16ff
16bb-
=279
16gg
16bb-
16ee-
16bb-
16ff
16bb-
16dd
16bb-
=280
16ee-
16bb-
16gg
16bb-
16aa-
16bb-
16ff
16bb-
=281
16gg
16bb-
16ee-
16bb-
16ff
16bb-
16dd
16bb-
=282
16ee-
16bb-
16gg
16bb-
16ee-
16bb-
16gg
16bb-
=283
16ee-
16bb-
16gg
16bb-
16ee-
16bb-
16gg
16bb-
=284
4ee-
4gg
=285
4e-
4r
==
*-
